;FLAVOR:Marlin
;TIME:5193
;Filament used: 2.91179m
;Layer height: 0.2
;MINX:58.153
;MINY:61.529
;MINZ:0.2
;MAXX:164.508
;MAXY:165.55
;MAXZ:6.8
;Generated with Cura_SteamEngine 5.2.1
M82 ;absolute extrusion mode
; Ender 3 Custom Start G-code
G92 E0 ; Reset Extruder
G28 ; Home all axes
M104 S175 ; Start heating up the nozzle most of the way
M190 S60 ; Start heating the bed, wait until target temperature reached
M109 S200 ; Finish heating the nozzle
G1 Z2.0 F3000 ; Move Z Axis up little to prevent scratching of Heat Bed
G1 X0.1 Y20 Z0.3 F5000.0 ; Move to start position
G1 X0.1 Y200.0 Z0.3 F1500.0 E15 ; Draw the first line
G1 X0.4 Y200.0 Z0.3 F5000.0 ; Move to side a little
G1 X0.4 Y20 Z0.3 F1500.0 E30 ; Draw the second line
G92 E0 ; Reset Extruder
G1 Z2.0 F3000 ; Move Z Axis up little to prevent scratching of Heat Bed
G1 X5 Y20 Z0.3 F5000.0 ; Move over to prevent blob squish
G92 E0
G92 E0
G1 F1500 E-6.5
;LAYER_COUNT:34
;LAYER:0
M107
G0 F6000 X75.78 Y67.152 Z0.2
;TYPE:SKIRT
G1 F1500 E0
G1 F1200 X76.313 Y66.589 E0.02579
G1 X76.997 Y65.916 E0.0577
G1 X77.715 Y65.244 E0.09041
G1 X78.469 Y64.586 E0.12369
G1 X79.206 Y64.006 E0.15489
G1 X79.789 Y63.613 E0.17827
G1 X80.017 Y63.47 E0.18722
G1 X80.832 Y63.006 E0.21842
G1 X81.373 Y62.747 E0.23837
G1 X81.713 Y62.595 E0.25075
G1 X82.584 Y62.249 E0.28192
G1 X83.482 Y61.979 E0.31311
G1 X84.072 Y61.845 E0.33324
G1 X84.604 Y61.74 E0.35127
G1 X85.531 Y61.598 E0.38246
G1 X86.458 Y61.529 E0.41338
G1 X87.937 Y61.566 E0.46259
G1 X88.242 Y61.593 E0.47277
G1 X89.172 Y61.715 E0.50397
G1 X89.921 Y61.87 E0.52941
G1 X90.665 Y62.062 E0.55497
G1 X91.628 Y62.347 E0.58837
G1 X92.445 Y62.601 E0.61682
G1 X94.876 Y63.284 E0.70081
G1 X97.296 Y63.89 E0.78379
G1 X99.742 Y64.431 E0.86711
G1 X102.245 Y64.911 E0.95187
G1 X104.737 Y65.315 E1.03584
G1 X107.2 Y65.644 E1.11849
G1 X109.725 Y65.908 E1.20293
G1 X112.254 Y66.101 E1.28729
G1 X139.209 Y67.778 E2.18555
G1 X140.084 Y67.844 E2.21473
G1 X141.015 Y67.955 E2.24592
G1 X141.933 Y68.145 E2.2771
G1 X142.832 Y68.412 E2.30829
G1 X143.705 Y68.755 E2.33948
G1 X144.545 Y69.172 E2.37068
G1 X145.347 Y69.658 E2.40187
G1 X146.105 Y70.211 E2.43307
G1 X146.813 Y70.826 E2.46427
G1 X147.466 Y71.5 E2.49548
G1 X147.83 Y71.931 E2.51424
G1 X148.457 Y72.713 E2.54758
G1 X148.766 Y73.111 E2.56434
G1 X150.356 Y75.05 E2.64774
G1 X152.038 Y76.986 E2.73304
G1 X153.706 Y78.8 E2.815
G1 X155.504 Y80.649 E2.90078
G1 X156.72 Y81.84 E2.95739
G1 X157.625 Y82.711 E2.99917
G1 X158.064 Y83.158 E3.02001
G1 X158.56 Y83.693 E3.04427
G1 X159.114 Y84.34 E3.0726
G1 X159.561 Y84.904 E3.09654
G1 X160.006 Y85.506 E3.12144
G1 X160.285 Y85.912 E3.13782
G1 X160.56 Y86.333 E3.15455
G1 X160.944 Y86.965 E3.17915
G1 X161.346 Y87.682 E3.20649
G1 X161.678 Y88.323 E3.23049
G1 X162.891 Y90.771 E3.32136
G1 X163.266 Y91.499 E3.3486
G1 X163.66 Y92.35 E3.37979
G1 X163.98 Y93.232 E3.411
G1 X164.224 Y94.137 E3.44217
G1 X164.39 Y95.06 E3.47336
G1 X164.488 Y96.332 E3.5158
G1 X164.508 Y97.485 E3.55415
G1 X164.505 Y124.021 E4.43674
G1 X164.494 Y124.724 E4.46013
G1 X164.439 Y125.66 E4.49131
G1 X164.305 Y126.589 E4.52253
G1 X164.092 Y127.502 E4.55371
G1 X163.802 Y128.394 E4.58491
G1 X163.554 Y129.004 E4.60681
G1 X163.392 Y129.37 E4.62012
G1 X162.988 Y130.189 E4.6505
G1 X161.916 Y132.153 E4.72492
G1 X160.773 Y134.378 E4.80811
G1 X159.668 Y136.688 E4.89328
G1 X158.657 Y138.967 E4.97621
G1 X157.699 Y141.304 E5.06021
G1 X156.806 Y143.669 E5.14429
G1 X155.985 Y146.044 E5.22787
G1 X155.615 Y147.198 E5.26818
G1 X155.426 Y147.759 E5.28787
G1 X154.919 Y148.999 E5.33243
G1 X154.772 Y149.304 E5.34369
G1 X154.087 Y150.522 E5.39017
G1 X153.894 Y150.819 E5.40195
G1 X153.349 Y151.583 E5.43316
G1 X152.844 Y152.186 E5.45932
G1 X152.636 Y152.417 E5.46966
G1 X151.731 Y153.312 E5.51199
G1 X151.48 Y153.533 E5.52312
G1 X150.75 Y154.122 E5.55431
G1 X150.053 Y154.603 E5.58248
G1 X149.251 Y155.09 E5.61369
G1 X148.796 Y155.328 E5.63077
G1 X148.499 Y155.474 E5.64177
G1 X147.5 Y155.905 E5.67796
G1 X146.595 Y156.243 E5.71009
G1 X144.231 Y157.166 E5.7945
G1 X141.881 Y158.161 E5.87938
G1 X139.626 Y159.191 E5.96183
G1 X137.367 Y160.301 E6.04555
G1 X134.214 Y161.982 E6.16439
G1 X133.834 Y162.175 E6.17857
G1 X133.139 Y162.506 E6.20417
G1 X132.814 Y162.651 E6.21601
G1 X132.277 Y162.873 E6.23533
G1 X131.575 Y163.137 E6.26028
G1 X131.267 Y163.244 E6.27112
G1 X130.698 Y163.424 E6.29097
G1 X129.918 Y163.643 E6.31792
G1 X128.737 Y163.922 E6.35828
G1 X124.905 Y164.869 E6.48957
G1 X123.821 Y165.161 E6.52691
G1 X122.906 Y165.366 E6.55809
G1 X121.976 Y165.493 E6.58931
G1 X121.161 Y165.538 E6.61646
G1 X120.416 Y165.55 E6.64124
G1 X93.429 Y165.549 E7.53883
G1 X92.725 Y165.539 E7.56225
G1 X91.788 Y165.486 E7.59347
G1 X90.86 Y165.353 E7.62465
G1 X89.946 Y165.141 E7.65585
G1 X89.054 Y164.853 E7.68703
G1 X88.189 Y164.489 E7.71824
G1 X87.665 Y164.225 E7.73776
G1 X86.754 Y163.734 E7.77218
G1 X86.352 Y163.526 E7.78723
G1 X84.933 Y162.747 E7.84107
G1 X84.355 Y162.444 E7.86278
G1 X83.701 Y162.072 E7.8878
G1 X83.081 Y161.691 E7.91201
G1 X82.37 Y161.215 E7.94047
G1 X81.963 Y160.919 E7.9572
G1 X81.477 Y160.548 E7.97754
G1 X81.023 Y160.173 E7.99713
G1 X80.665 Y159.861 E8.01292
G1 X80.188 Y159.425 E8.03441
G1 X79.656 Y158.894 E8.05941
G1 X79.174 Y158.379 E8.08287
G1 X78.611 Y157.728 E8.1115
G1 X78.297 Y157.335 E8.12823
G1 X77.932 Y156.857 E8.14824
G1 X77.587 Y156.367 E8.16817
G1 X77.132 Y155.674 E8.19574
G1 X76.644 Y154.887 E8.22654
G1 X75.252 Y152.713 E8.3124
G1 X73.844 Y150.645 E8.39561
G1 X72.364 Y148.598 E8.47963
G1 X70.83 Y146.598 E8.56346
G1 X69.268 Y144.677 E8.64581
G1 X68.379 Y143.659 E8.69076
G1 X68.091 Y143.299 E8.70609
G1 X67.341 Y142.42 E8.74453
G1 X66.835 Y141.792 E8.77135
G1 X66.212 Y140.936 E8.80656
G1 X65.808 Y140.322 E8.83101
G1 X65.266 Y139.405 E8.86644
G1 X64.935 Y138.777 E8.89005
G1 X64.496 Y137.841 E8.92443
G1 X64.221 Y137.174 E8.94843
G1 X63.874 Y136.206 E8.98263
G1 X63.686 Y135.593 E9.00396
G1 X63.431 Y134.594 E9.03825
G1 X63.269 Y133.81 E9.06488
G1 X63.099 Y132.714 E9.10177
G1 X63.03 Y132.046 E9.1241
G1 X62.973 Y131.072 E9.15655
G1 X62.964 Y129.989 E9.19257
G1 X62.983 Y129.31 E9.21517
G1 X63.114 Y126.18 E9.31936
G1 X63.144 Y123.636 E9.40398
G1 X63.103 Y121.16 E9.48634
G1 X62.99 Y118.638 E9.57031
G1 X62.807 Y116.124 E9.65415
G1 X62.549 Y113.588 E9.73893
G1 X62.23 Y111.144 E9.82091
G1 X61.832 Y108.639 E9.90527
G1 X61.36 Y106.134 E9.99005
G1 X60.836 Y103.718 E10.07228
G1 X60.23 Y101.278 E10.1559
G1 X59.541 Y98.797 E10.24154
G1 X59.08 Y97.274 E10.29446
G1 X58.716 Y96.105 E10.33519
G1 X58.4 Y94.821 E10.37917
G1 X58.331 Y94.445 E10.39188
G1 X58.153 Y92.962 E10.44156
G1 X58.16 Y91.51 E10.48985
G1 X58.181 Y91.189 E10.50055
G1 X58.353 Y89.846 E10.54559
G1 X58.415 Y89.521 E10.55659
G1 X58.716 Y88.318 E10.59784
G1 X58.794 Y88.067 E10.60658
G1 X59.11 Y87.184 E10.63777
G1 X59.43 Y86.461 E10.66407
G1 X60.068 Y85.273 E10.70892
G1 X60.251 Y84.977 E10.72049
G1 X61.018 Y83.879 E10.76504
G1 X61.717 Y83.064 E10.80075
G1 X62.047 Y82.725 E10.81649
G1 X62.534 Y82.25 E10.83911
G1 X64.484 Y80.409 E10.92831
G1 X66.252 Y78.641 E11.01147
G1 X67.989 Y76.804 E11.09556
G1 X69.652 Y74.941 E11.17862
G1 X71.283 Y73.007 E11.26276
G1 X72.835 Y71.059 E11.3456
G1 X75.19 Y67.881 E11.47716
G1 X75.78 Y67.152 E11.50836
G0 F6000 X76.091 Y67.404
G1 F1200 X76.594 Y66.874 E11.53266
G1 X77.278 Y66.201 E11.56457
G1 X77.987 Y65.537 E11.59688
G1 X78.73 Y64.889 E11.62967
G1 X79.454 Y64.32 E11.6603
G1 X80.002 Y63.952 E11.68226
G1 X80.23 Y63.809 E11.69121
G1 X81.03 Y63.354 E11.72182
G1 X81.536 Y63.112 E11.74047
G1 X81.876 Y62.96 E11.75286
G1 X82.732 Y62.621 E11.78348
G1 X83.614 Y62.358 E11.81409
G1 X84.149 Y62.238 E11.83233
G1 X84.681 Y62.133 E11.85037
G1 X85.592 Y61.994 E11.88102
G1 X86.475 Y61.929 E11.91046
G1 X87.902 Y61.964 E11.95794
G1 X88.207 Y61.991 E11.96812
G1 X89.563 Y62.201 E12.01376
G1 X89.834 Y62.261 E12.02299
G1 X90.551 Y62.446 E12.04762
G1 X91.666 Y62.777 E12.08631
G1 X92.323 Y62.982 E12.1092
G1 X94.776 Y63.671 E12.19394
G1 X97.185 Y64.275 E12.27655
G1 X99.686 Y64.828 E12.36174
G1 X102.177 Y65.305 E12.4461
G1 X104.657 Y65.707 E12.52966
G1 X107.173 Y66.043 E12.61408
G1 X109.692 Y66.307 E12.69832
G1 X112.196 Y66.498 E12.78185
G1 X139.184 Y68.177 E13.68121
G1 X140.053 Y68.243 E13.7102
G1 X140.967 Y68.352 E13.74081
G1 X141.868 Y68.541 E13.77143
G1 X142.75 Y68.807 E13.80207
G1 X143.605 Y69.149 E13.8327
G1 X144.427 Y69.563 E13.86331
G1 X145.21 Y70.047 E13.89393
G1 X145.948 Y70.598 E13.92456
G1 X146.635 Y71.21 E13.95516
G1 X147.518 Y72.181 E13.99881
G1 X148.467 Y73.377 E14.04959
G1 X150.062 Y75.322 E14.13326
G1 X151.709 Y77.218 E14.21679
G1 X153.442 Y79.103 E14.30195
G1 X155.199 Y80.91 E14.38578
G1 X156.508 Y82.192 E14.44672
G1 X157.347 Y83 E14.48546
G1 X157.77 Y83.43 E14.50552
G1 X158.266 Y83.965 E14.52979
G1 X158.8 Y84.588 E14.55708
G1 X159.247 Y85.152 E14.58102
G1 X159.676 Y85.733 E14.60504
G1 X159.955 Y86.139 E14.62142
G1 X160.22 Y86.544 E14.63752
G1 X160.597 Y87.163 E14.66162
G1 X160.991 Y87.868 E14.68849
G1 X161.32 Y88.5 E14.71218
G1 X162.571 Y91.027 E14.80597
G1 X162.91 Y91.683 E14.83053
G1 X163.297 Y92.518 E14.86114
G1 X163.609 Y93.384 E14.89175
G1 X163.845 Y94.274 E14.92238
G1 X164.002 Y95.181 E14.95299
G1 X164.088 Y96.339 E14.99162
G1 X164.108 Y97.485 E15.02974
G1 X164.105 Y124.015 E15.91213
G1 X164.094 Y124.718 E15.93551
G1 X164.039 Y125.637 E15.96613
G1 X163.905 Y126.548 E15.99676
G1 X163.693 Y127.444 E16.02738
G1 X163.404 Y128.318 E16.058
G1 X163.188 Y128.842 E16.07685
G1 X163.026 Y129.208 E16.09016
G1 X162.637 Y129.998 E16.11945
G1 X161.55 Y131.989 E16.1949
G1 X160.414 Y134.201 E16.27761
G1 X159.319 Y136.49 E16.362
G1 X158.28 Y138.832 E16.44722
G1 X157.331 Y141.147 E16.53043
G1 X156.426 Y143.545 E16.61568
G1 X155.605 Y145.917 E16.69917
G1 X155.178 Y147.247 E16.74563
G1 X155.048 Y147.63 E16.75908
G1 X154.559 Y148.825 E16.80203
G1 X154.412 Y149.13 E16.81329
G1 X153.751 Y150.304 E16.8581
G1 X153.558 Y150.601 E16.86988
G1 X153.023 Y151.35 E16.90049
G1 X152.547 Y151.918 E16.92514
G1 X152.339 Y152.149 E16.93548
G1 X151.467 Y153.012 E16.97628
G1 X151.216 Y153.233 E16.98741
G1 X150.499 Y153.81 E17.01802
G1 X149.83 Y154.271 E17.04504
G1 X149.043 Y154.748 E17.07565
G1 X148.322 Y155.115 E17.10256
G1 X147.36 Y155.53 E17.1374
G1 X146.52 Y155.844 E17.16723
G1 X144.066 Y156.802 E17.25485
G1 X141.737 Y157.788 E17.33897
G1 X139.419 Y158.847 E17.42373
G1 X137.194 Y159.94 E17.50618
G1 X134.026 Y161.629 E17.62559
G1 X133.277 Y162 E17.65339
G1 X132.651 Y162.285 E17.67627
G1 X132.134 Y162.5 E17.69489
G1 X131.767 Y162.641 E17.70797
G1 X131.136 Y162.866 E17.73025
G1 X130.588 Y163.04 E17.74937
G1 X129.82 Y163.255 E17.7759
G1 X129.255 Y163.394 E17.79525
G1 X128.612 Y163.54 E17.81718
G1 X124.847 Y164.47 E17.94617
G1 X123.717 Y164.775 E17.9851
G1 X122.818 Y164.975 E18.01573
G1 X121.906 Y165.098 E18.04634
G1 X121.154 Y165.138 E18.07138
G1 X120.416 Y165.15 E18.09593
G1 X93.434 Y165.149 E18.99336
G1 X92.73 Y165.139 E19.01678
G1 X91.811 Y165.086 E19.04739
G1 X90.9 Y164.953 E19.07801
G1 X90.004 Y164.742 E19.10863
G1 X89.13 Y164.454 E19.13924
G1 X88.284 Y164.091 E19.16986
G1 X87.855 Y163.873 E19.18586
G1 X86.683 Y163.242 E19.23013
G1 X86.545 Y163.175 E19.23523
G1 X85.152 Y162.41 E19.28809
G1 X84.541 Y162.09 E19.31103
G1 X83.91 Y161.731 E19.33518
G1 X83.29 Y161.35 E19.35938
G1 X82.605 Y160.892 E19.38679
G1 X82.198 Y160.596 E19.40353
G1 X81.723 Y160.232 E19.42343
G1 X81.286 Y159.871 E19.44228
G1 X80.928 Y159.559 E19.45808
G1 X80.461 Y159.132 E19.47913
G1 X79.948 Y158.62 E19.50323
G1 X79.466 Y158.105 E19.52669
G1 X78.924 Y157.479 E19.55423
G1 X78.61 Y157.086 E19.57096
G1 X78.253 Y156.617 E19.59057
G1 X77.92 Y156.146 E19.60975
G1 X77.472 Y155.463 E19.63692
G1 X76.978 Y154.667 E19.66808
G1 X75.603 Y152.518 E19.75293
G1 X74.166 Y150.408 E19.83784
G1 X72.69 Y148.367 E19.92162
G1 X71.141 Y146.348 E20.00626
G1 X69.569 Y144.415 E20.08912
G1 X68.68 Y143.396 E20.1341
G1 X68.399 Y143.045 E20.14906
G1 X67.653 Y142.169 E20.18733
G1 X67.147 Y141.541 E20.21415
G1 X66.546 Y140.716 E20.2481
G1 X66.142 Y140.102 E20.27254
G1 X65.62 Y139.218 E20.30669
G1 X65.289 Y138.59 E20.3303
G1 X64.866 Y137.688 E20.36344
G1 X64.591 Y137.021 E20.38743
G1 X64.257 Y136.089 E20.42036
G1 X64.069 Y135.476 E20.44169
G1 X63.822 Y134.513 E20.47475
G1 X63.66 Y133.729 E20.50138
G1 X63.497 Y132.673 E20.53692
G1 X63.428 Y132.005 E20.55925
G1 X63.373 Y131.066 E20.59054
G1 X63.363 Y130.361 E20.61399
G1 X63.371 Y129.651 E20.63761
G1 X63.514 Y126.164 E20.75368
G1 X63.544 Y123.685 E20.83614
G1 X63.501 Y121.099 E20.92216
G1 X63.391 Y118.627 E21.00446
G1 X63.205 Y116.087 E21.08917
G1 X62.949 Y113.566 E21.17345
G1 X62.623 Y111.071 E21.25714
G1 X62.22 Y108.534 E21.34258
G1 X61.758 Y106.081 E21.4256
G1 X61.229 Y103.642 E21.50861
G1 X60.61 Y101.146 E21.59414
G1 X59.93 Y98.701 E21.67855
G1 X59.463 Y97.158 E21.73217
G1 X59.098 Y95.986 E21.77299
G1 X58.793 Y94.749 E21.81537
G1 X58.724 Y94.373 E21.82808
G1 X58.553 Y92.939 E21.87612
G1 X58.56 Y91.536 E21.92278
G1 X58.581 Y91.215 E21.93348
G1 X58.746 Y89.921 E21.97687
G1 X58.808 Y89.596 E21.98787
G1 X59.098 Y88.436 E22.02764
G1 X59.176 Y88.185 E22.03638
G1 X59.667 Y86.902 E22.08207
G1 X59.793 Y86.628 E22.0921
G1 X60.408 Y85.483 E22.13533
G1 X60.591 Y85.187 E22.14691
G1 X61.347 Y84.106 E22.19078
G1 X62.328 Y83.01 E22.23971
G1 X62.808 Y82.541 E22.26203
G1 X64.776 Y80.683 E22.35204
G1 X66.526 Y78.933 E22.43436
G1 X68.281 Y77.077 E22.51932
G1 X69.967 Y75.188 E22.60353
G1 X71.602 Y73.25 E22.68786
G1 X73.135 Y71.325 E22.76971
G1 X75.511 Y68.119 E22.90244
G1 X76.091 Y67.404 E22.93306
G0 F6000 X76.402 Y67.657
G1 F1200 X76.874 Y67.159 E22.95588
G1 X77.558 Y66.486 E22.98779
G1 X78.259 Y65.83 E23.01973
G1 X78.99 Y65.193 E23.05198
G1 X79.701 Y64.635 E23.08204
G1 X80.214 Y64.291 E23.10258
G1 X80.442 Y64.148 E23.11153
G1 X81.228 Y63.702 E23.14159
G1 X81.699 Y63.477 E23.15895
G1 X82.039 Y63.325 E23.17134
G1 X82.879 Y62.993 E23.20138
G1 X83.745 Y62.737 E23.23141
G1 X84.227 Y62.63 E23.24784
G1 X84.759 Y62.525 E23.26587
G1 X85.652 Y62.39 E23.29591
G1 X86.492 Y62.329 E23.32392
G1 X87.866 Y62.363 E23.36964
G1 X88.171 Y62.39 E23.37982
G1 X89.477 Y62.591 E23.42377
G1 X89.748 Y62.651 E23.433
G1 X90.438 Y62.829 E23.4567
G1 X91.401 Y63.114 E23.4901
G1 X92.192 Y63.361 E23.51767
G1 X94.676 Y64.059 E23.60348
G1 X97.115 Y64.669 E23.6871
G1 X99.595 Y65.218 E23.77159
G1 X102.103 Y65.698 E23.85652
G1 X104.607 Y66.105 E23.94089
G1 X107.12 Y66.44 E24.02522
G1 X109.618 Y66.702 E24.10875
G1 X112.287 Y66.905 E24.19778
G1 X139.301 Y68.586 E25.09801
G1 X140.023 Y68.641 E25.12209
G1 X140.919 Y68.75 E25.15211
G1 X141.803 Y68.937 E25.18217
G1 X142.666 Y69.202 E25.21219
G1 X143.503 Y69.542 E25.24224
G1 X144.306 Y69.955 E25.27227
G1 X145.07 Y70.437 E25.30232
G1 X145.788 Y70.984 E25.33234
G1 X146.455 Y71.594 E25.3624
G1 X147.206 Y72.431 E25.39981
G1 X147.833 Y73.213 E25.43314
G1 X148.153 Y73.626 E25.45052
G1 X149.734 Y75.555 E25.53347
G1 X151.429 Y77.506 E25.61943
G1 X153.126 Y79.351 E25.70281
G1 X154.936 Y81.213 E25.78918
G1 X156.206 Y82.457 E25.84831
G1 X157.07 Y83.288 E25.88818
G1 X157.477 Y83.702 E25.90749
G1 X157.973 Y84.237 E25.93175
G1 X158.487 Y84.836 E25.958
G1 X158.934 Y85.4 E25.98194
G1 X159.346 Y85.959 E26.00504
G1 X159.625 Y86.365 E26.02142
G1 X159.881 Y86.755 E26.03694
G1 X160.25 Y87.362 E26.06056
G1 X160.637 Y88.053 E26.08691
G1 X160.961 Y88.678 E26.11032
G1 X162.178 Y91.135 E26.20152
G1 X162.555 Y91.866 E26.22887
G1 X162.933 Y92.686 E26.2589
G1 X163.237 Y93.536 E26.28893
G1 X163.465 Y94.41 E26.31897
G1 X163.614 Y95.301 E26.34902
G1 X163.688 Y96.347 E26.38389
G1 X163.708 Y97.485 E26.42175
G1 X163.705 Y124.009 E27.30394
